X:010
T: Carolan's Receipt for Drinking Whiskey
N: O'Farrell's Pocket Companion v.1 (Sky ed. p.16)
N: "Irish"
M: C
L: 1/8
R: reel
Q: 250
K: G
g|edcB cBAG|E2 G>A G2 g>f|edcB cBAG|e2 AB A3B|
dBde d2 ef|g>age d3c| BAGE AGED|E2 GA G3 :|
B|dBde dBAG|E2 G>A G3B|dBde d2Bd |e2 AB A2 BA|
G2 G>B A2 A>c|BABd d2 ef|gagf edBd|e2ga g3a|
babg agae|gagf edcB|cBcd edcB|efgB A2 G>A|
BcBA G2 g>e|dcBA G3A|BAGE AGED|E2 G>A G3 :|
